Sources/FrostedUI/Resources/Icons.xcassets/diceSize24.imageset/dice-size-24.svg

<svg
  width="24"
  height="24"
  viewBox="0 0 24 24"
  fill="none"
  xmlns="http://www.w3.org/2000/svg"
  data-fui-icon="true"
>
  <g clip-path="url(#clip0_622_187)">
    <path
      d="M4.04504 4.04505C3.4791 4.61099 3.16116 5.37857 3.16116 6.17893V17.8211C3.16116 18.6214 3.4791 19.389 4.04504 19.955V19.955C4.61098 20.5209 5.37856 20.8388 6.17892 20.8388L17.8211 20.8388C18.6214 20.8388 19.389 20.5209 19.9549 19.955V19.955C20.5209 19.389 20.8388 18.6214 20.8388 17.8211V6.17893C20.8388 5.37857 20.5209 4.61099 19.9549 4.04505V4.04505C19.389 3.47911 18.6214 3.16117 17.8211 3.16117L6.17892 3.16117C5.37856 3.16117 4.61098 3.47911 4.04504 4.04505V4.04505Z"
      stroke="currentColor"
      stroke-width="1.5"
      stroke-linecap="round"
      stroke-linejoin="round"
    />
    <path
      d="M12.8839 11.1161C13.372 11.6043 13.372 12.3957 12.8839 12.8839 12.3957 13.372 11.6043 13.372 11.1161 12.8839 10.628 12.3957 10.628 11.6043 11.1161 11.1161 11.6043 10.628 12.3957 10.628 12.8839 11.1161zM8.64124 6.87348C9.1294 7.36163 9.1294 8.15309 8.64124 8.64124 8.15309 9.1294 7.36163 9.1294 6.87348 8.64124 6.38532 8.15309 6.38532 7.36163 6.87348 6.87348 7.36163 6.38532 8.15309 6.38532 8.64124 6.87348zM6.87347 15.3588C7.36163 14.8706 8.15308 14.8706 8.64124 15.3588 9.12939 15.8469 9.12939 16.6384 8.64124 17.1265 8.15308 17.6147 7.36163 17.6147 6.87347 17.1265 6.38532 16.6384 6.38532 15.8469 6.87347 15.3588zM17.1265 15.3588C17.6147 15.8469 17.6147 16.6384 17.1265 17.1265 16.6384 17.6147 15.8469 17.6147 15.3588 17.1265 14.8706 16.6384 14.8706 15.8469 15.3588 15.3588 15.8469 14.8706 16.6384 14.8706 17.1265 15.3588zM15.3588 6.87348C15.8469 6.38532 16.6384 6.38532 17.1265 6.87348 17.6147 7.36163 17.6147 8.15309 17.1265 8.64124 16.6384 9.1294 15.8469 9.1294 15.3588 8.64124 14.8706 8.15309 14.8706 7.36163 15.3588 6.87348z"
      fill="currentColor"
    />
  </g>
  <defs>
    <clipPath id="clip0_622_187">
      <path fill="currentColor" d="M0 0H24V24H0z" />
    </clipPath>
  </defs>
</svg>

<svg xmlns="http://www.w3.org/2000/svg" width="24" height="24" fill="none" data-fui-icon="true" viewBox="0 0 24 24"><g clip-path="url(#a)"><path stroke="currentColor" stroke-linecap="round" stroke-linejoin="round" stroke-width="1.5" d="M4.045 4.045a3.02 3.02 0 0 0-.884 2.134V17.82c0 .8.318 1.568.884 2.134v0a3.02 3.02 0 0 0 2.134.884H17.82c.8 0 1.568-.318 2.134-.884v0a3.02 3.02 0 0 0 .884-2.134V6.18c0-.8-.318-1.568-.884-2.134v0a3.02 3.02 0 0 0-2.134-.884H6.18c-.8 0-1.568.318-2.134.884"/><path fill="currentColor" d="M12.884 11.116a1.25 1.25 0 1 1-1.768 1.768 1.25 1.25 0 0 1 1.768-1.768M8.64 6.873a1.25 1.25 0 1 1-1.767 1.768A1.25 1.25 0 0 1 8.64 6.873M6.873 15.36a1.25 1.25 0 1 1 1.768 1.767 1.25 1.25 0 0 1-1.768-1.767m10.253 0a1.25 1.25 0 1 1-1.767 1.767 1.25 1.25 0 0 1 1.768-1.767M15.36 6.873a1.25 1.25 0 1 1 1.767 1.768 1.25 1.25 0 0 1-1.767-1.768"/></g><defs><clipPath id="a"><path fill="currentColor" d="M0 0h24v24H0z"/></clipPath></defs></svg>
